X:1
T:Bounty Was a Packet Ship
M:4/4
L:1/4
K:C
 G3/2 ^F/2 G3/2 A/2| G3/2 E/2 C z| G2 G2| D3/2 D/2 D z| D3/2 E/2 F3/2 A/2|\
 G3/2 F/2 D z| G3/2 G/2 G2| C3/2 C/2 C2|
